X:2
T:Idlewild Jig
M:6/8
K:D
"D" D2D FED | F2A d2 A | "G" Bcd A2F | "A"E2D B,2A, | 
"D" D2D FED | F2A d2 A | "G" Bcd A2F | "A"E2F "D"D3:|
"Bm"B2F F^EF |"Bm/A#"d2 B B^AB |"Bm/A" f2 B B^AB |"Bm/G#" b2f f^ef | "G"g2e "D"f2d |
"A"e2c "D"d2A |1"G"Bcd A2 c | "A"B2 "F#m"AF2A:|2"G"Bcd A2F | "A"E2D B,2A,|]
%%textfont Times-Roman 8
%%text 04/19/08 

#include "RightHeader.h"
%%textfont       Times-Bold 18.0
%%text Set 95
% Haste to the Wedding (D) / Timmy Clifford's (G)
%%textfont       Times-Roman 7.0
%%scale .9
$SmallLMargin
$SmallRMargin
